public/assets/images/affiliate/buildjet.svg

<svg viewBox="0 0 204 48" fill="none" xmlns="http://www.w3.org/2000/svg" class="h-[38px] shrink-0"><g clip-path="url(#clip0_1339_2278)"><path d="M40 0H8C3.58172 0 0 3.58172 0 8V40C0 44.4183 3.58172 48 8 48H40C44.4183 48 48 44.4183 48 40V8C48 3.58172 44.4183 0 40 0Z" fill="#2563EB"></path><g filter="url(#filter0_d_1339_2278)"><path d="M34 8H14C10.6863 8 8 10.6863 8 14V34C8 37.3137 10.6863 40 14 40H34C37.3137 40 40 37.3137 40 34V14C40 10.6863 37.3137 8 34 8Z" fill="white"></path></g><g filter="url(#filter1_f_1339_2278)"><path d="M25.5572 24.1319L25.425 24.618L25.912 24.7466L28.7068 25.4843L21.423 30.7632L23.2984 23.8681L23.4306 23.382L22.9435 23.2534L20.1484 22.5157L27.4326 17.2368L25.5572 24.1319Z" stroke="#4F46E5" stroke-opacity="0.6"></path></g><path d="M25.5572 24.1319L25.425 24.618L25.912 24.7466L28.7068 25.4843L21.423 30.7632L23.2984 23.8681L23.4306 23.382L22.9435 23.2534L20.1484 22.5157L27.4326 17.2368L25.5572 24.1319Z" fill="#2563EB" stroke="#1D4ED8"></path><path d="M61.36 22V8H66.98C68.4333 8 69.54 8.34 70.3 9.02C71.0733 9.68667 71.46 10.5467 71.46 11.6C71.46 12.48 71.22 13.1867 70.74 13.72C70.2733 14.24 69.7 14.5933 69.02 14.78C69.82 14.94 70.48 15.34 71 15.98C71.52 16.6067 71.78 17.34 71.78 18.18C71.78 19.2867 71.38 20.2 70.58 20.92C69.78 21.64 68.6467 22 67.18 22H61.36ZM63.92 13.88H66.6C67.32 13.88 67.8733 13.7133 68.26 13.38C68.6467 13.0467 68.84 12.5733 68.84 11.96C68.84 11.3733 68.6467 10.9133 68.26 10.58C67.8867 10.2333 67.32 10.06 66.56 10.06H63.92V13.88ZM63.92 19.92H66.78C67.54 19.92 68.1267 19.7467 68.54 19.4C68.9667 19.04 69.18 18.54 69.18 17.9C69.18 17.2467 68.96 16.7333 68.52 16.36C68.08 15.9867 67.4867 15.8 66.74 15.8H63.92V19.92ZM77.6372 22.24C76.3972 22.24 75.4372 21.8533 74.7572 21.08C74.0905 20.3067 73.7572 19.1733 73.7572 17.68V12.08H76.2972V17.44C76.2972 18.2933 76.4705 18.9467 76.8172 19.4C77.1639 19.8533 77.7105 20.08 78.4572 20.08C79.1639 20.08 79.7439 19.8267 80.1972 19.32C80.6639 18.8133 80.8972 18.1067 80.8972 17.2V12.08H83.4572V22H81.1972L80.9972 20.32C80.6905 20.9067 80.2439 21.3733 79.6572 21.72C79.0839 22.0667 78.4105 22.24 77.6372 22.24ZM87.4652 10.54C86.9985 10.54 86.6118 10.4 86.3052 10.12C86.0118 9.84 85.8652 9.48667 85.8652 9.06C85.8652 8.63333 86.0118 8.28667 86.3052 8.02C86.6118 7.74 86.9985 7.6 87.4652 7.6C87.9318 7.6 88.3118 7.74 88.6052 8.02C88.9118 8.28667 89.0652 8.63333 89.0652 9.06C89.0652 9.48667 88.9118 9.84 88.6052 10.12C88.3118 10.4 87.9318 10.54 87.4652 10.54ZM86.1852 22V12.08H88.7452V22H86.1852ZM91.4172 22V7.6H93.9772V22H91.4172ZM101.153 22.24C100.22 22.24 99.3863 22.0133 98.653 21.56C97.9196 21.1067 97.3396 20.4867 96.913 19.7C96.4863 18.9133 96.273 18.02 96.273 17.02C96.273 16.02 96.4863 15.1333 96.913 14.36C97.3396 13.5733 97.9196 12.96 98.653 12.52C99.3863 12.0667 100.22 11.84 101.153 11.84C101.9 11.84 102.553 11.98 103.113 12.26C103.673 12.54 104.126 12.9333 104.473 13.44V7.6H107.033V22H104.753L104.473 20.58C104.153 21.02 103.726 21.4067 103.193 21.74C102.673 22.0733 101.993 22.24 101.153 22.24ZM101.693 20C102.52 20 103.193 19.7267 103.713 19.18C104.246 18.62 104.513 17.9067 104.513 17.04C104.513 16.1733 104.246 15.4667 103.713 14.92C103.193 14.36 102.52 14.08 101.693 14.08C100.88 14.08 100.206 14.3533 99.673 14.9C99.1396 15.4467 98.873 16.1533 98.873 17.02C98.873 17.8867 99.1396 18.6 99.673 19.16C100.206 19.72 100.88 20 101.693 20ZM113.36 22.24C112 22.24 110.907 21.86 110.08 21.1C109.267 20.3267 108.86 19.2333 108.86 17.82H111.42C111.433 18.4733 111.587 18.9933 111.88 19.38C112.173 19.7667 112.647 19.96 113.3 19.96C113.913 19.96 114.36 19.78 114.64 19.42C114.92 19.0467 115.06 18.56 115.06 17.96V8H117.62V17.96C117.62 19.3333 117.233 20.3933 116.46 21.14C115.7 21.8733 114.667 22.24 113.36 22.24ZM125.104 22.24C124.104 22.24 123.218 22.0267 122.444 21.6C121.671 21.1733 121.064 20.5733 120.624 19.8C120.184 19.0267 119.964 18.1333 119.964 17.12C119.964 16.0933 120.178 15.18 120.604 14.38C121.044 13.58 121.644 12.96 122.404 12.52C123.178 12.0667 124.084 11.84 125.124 11.84C126.098 11.84 126.958 12.0533 127.704 12.48C128.451 12.9067 129.031 13.4933 129.444 14.24C129.871 14.9733 130.084 15.7933 130.084 16.7C130.084 16.8467 130.078 17 130.064 17.16C130.064 17.32 130.058 17.4867 130.044 17.66H122.504C122.558 18.4333 122.824 19.04 123.304 19.48C123.798 19.92 124.391 20.14 125.084 20.14C125.604 20.14 126.038 20.0267 126.384 19.8C126.744 19.56 127.011 19.2533 127.184 18.88H129.784C129.598 19.5067 129.284 20.08 128.844 20.6C128.418 21.1067 127.884 21.5067 127.244 21.8C126.618 22.0933 125.904 22.24 125.104 22.24ZM125.124 13.92C124.498 13.92 123.944 14.1 123.464 14.46C122.984 14.8067 122.678 15.34 122.544 16.06H127.484C127.444 15.4067 127.204 14.8867 126.764 14.5C126.324 14.1133 125.778 13.92 125.124 13.92ZM136.482 22C135.442 22 134.608 21.7467 133.982 21.24C133.355 20.7333 133.042 19.8333 133.042 18.54V14.22H131.342V12.08H133.042L133.342 9.42H135.602V12.08H138.282V14.22H135.602V18.56C135.602 19.04 135.702 19.3733 135.902 19.56C136.115 19.7333 136.475 19.82 136.982 19.82H138.222V22H136.482Z" fill="black"></path><path d="M61.4091 41V29.3636H68.3864V30.6136H62.8182V34.5455H67.8636V35.7955H62.8182V41H61.4091ZM73.5227 41.1818C72.7348 41.1818 72.0436 40.9943 71.4489 40.6193C70.858 40.2443 70.3958 39.7197 70.0625 39.0455C69.733 38.3712 69.5682 37.5833 69.5682 36.6818C69.5682 35.7727 69.733 34.9792 70.0625 34.3011C70.3958 33.6231 70.858 33.0966 71.4489 32.7216C72.0436 32.3466 72.7348 32.1591 73.5227 32.1591C74.3106 32.1591 75 32.3466 75.5909 32.7216C76.1856 33.0966 76.6477 33.6231 76.9773 34.3011C77.3106 34.9792 77.4773 35.7727 77.4773 36.6818C77.4773 37.5833 77.3106 38.3712 76.9773 39.0455C76.6477 39.7197 76.1856 40.2443 75.5909 40.6193C75 40.9943 74.3106 41.1818 73.5227 41.1818ZM73.5227 39.9773C74.1212 39.9773 74.6136 39.8239 75 39.517C75.3864 39.2102 75.6723 38.8068 75.858 38.3068C76.0436 37.8068 76.1364 37.2652 76.1364 36.6818C76.1364 36.0985 76.0436 35.5549 75.858 35.0511C75.6723 34.5473 75.3864 34.1402 75 33.8295C74.6136 33.5189 74.1212 33.3636 73.5227 33.3636C72.9242 33.3636 72.4318 33.5189 72.0455 33.8295C71.6591 34.1402 71.3731 34.5473 71.1875 35.0511C71.0019 35.5549 70.9091 36.0985 70.9091 36.6818C70.9091 37.2652 71.0019 37.8068 71.1875 38.3068C71.3731 38.8068 71.6591 39.2102 72.0455 39.517C72.4318 39.8239 72.9242 39.9773 73.5227 39.9773ZM79.5241 41V32.2727H80.8196V33.5909H80.9105C81.0696 33.1591 81.3575 32.8087 81.7741 32.5398C82.1908 32.2708 82.6605 32.1364 83.1832 32.1364C83.2817 32.1364 83.4048 32.1383 83.5526 32.142C83.7003 32.1458 83.812 32.1515 83.8878 32.1591V33.5227C83.8423 33.5114 83.7382 33.4943 83.5753 33.4716C83.4162 33.4451 83.2476 33.4318 83.0696 33.4318C82.6454 33.4318 82.2666 33.5208 81.9332 33.6989C81.6037 33.8731 81.3423 34.1155 81.1491 34.4261C80.9598 34.733 80.8651 35.0833 80.8651 35.4773V41H79.5241ZM98.1136 33C97.9886 32.6174 97.8239 32.2746 97.6193 31.9716C97.4186 31.6648 97.178 31.4034 96.8977 31.1875C96.6212 30.9716 96.3068 30.8068 95.9545 30.6932C95.6023 30.5795 95.2159 30.5227 94.7955 30.5227C94.1061 30.5227 93.4792 30.7008 92.9148 31.0568C92.3504 31.4129 91.9015 31.9375 91.5682 32.6307C91.2348 33.3239 91.0682 34.1742 91.0682 35.1818C91.0682 36.1894 91.2367 37.0398 91.5739 37.733C91.911 38.4261 92.3674 38.9508 92.9432 39.3068C93.5189 39.6629 94.1667 39.8409 94.8864 39.8409C95.553 39.8409 96.1402 39.6989 96.6477 39.4148C97.1591 39.1269 97.5568 38.7216 97.8409 38.1989C98.1288 37.6723 98.2727 37.053 98.2727 36.3409L98.7045 36.4318H95.2045V35.1818H99.6364V36.4318C99.6364 37.3902 99.4318 38.2235 99.0227 38.9318C98.6174 39.6402 98.0568 40.1894 97.3409 40.5795C96.6288 40.9659 95.8106 41.1591 94.8864 41.1591C93.8561 41.1591 92.9508 40.9167 92.1705 40.4318C91.3939 39.947 90.7879 39.2576 90.3523 38.3636C89.9205 37.4697 89.7045 36.4091 89.7045 35.1818C89.7045 34.2614 89.8277 33.4337 90.0739 32.6989C90.3239 31.9602 90.6761 31.3314 91.1307 30.8125C91.5852 30.2936 92.1231 29.8958 92.7443 29.6193C93.3655 29.3428 94.0492 29.2045 94.7955 29.2045C95.4091 29.2045 95.9811 29.2973 96.5114 29.483C97.0455 29.6648 97.5208 29.9242 97.9375 30.2614C98.358 30.5947 98.7083 30.9943 98.9886 31.4602C99.2689 31.9223 99.4621 32.4356 99.5682 33H98.1136ZM102.415 41V32.2727H103.756V41H102.415ZM103.097 30.8182C102.835 30.8182 102.61 30.7292 102.42 30.5511C102.235 30.3731 102.142 30.1591 102.142 29.9091C102.142 29.6591 102.235 29.4451 102.42 29.267C102.61 29.089 102.835 29 103.097 29C103.358 29 103.581 29.089 103.767 29.267C103.956 29.4451 104.051 29.6591 104.051 29.9091C104.051 30.1591 103.956 30.3731 103.767 30.5511C103.581 30.7292 103.358 30.8182 103.097 30.8182ZM110.007 32.2727V33.4091H105.484V32.2727H110.007ZM106.803 30.1818H108.143V38.5C108.143 38.8788 108.198 39.1629 108.308 39.3523C108.422 39.5379 108.566 39.6629 108.74 39.7273C108.918 39.7879 109.106 39.8182 109.303 39.8182C109.45 39.8182 109.571 39.8106 109.666 39.7955C109.761 39.7765 109.837 39.7614 109.893 39.75L110.166 40.9545C110.075 40.9886 109.948 41.0227 109.786 41.0568C109.623 41.0947 109.416 41.1136 109.166 41.1136C108.787 41.1136 108.416 41.0322 108.053 40.8693C107.693 40.7064 107.393 40.4583 107.155 40.125C106.92 39.7917 106.803 39.3712 106.803 38.8636V30.1818ZM112.393 41V29.3636H113.803V34.5455H120.007V29.3636H121.416V41H120.007V35.7955H113.803V41H112.393ZM129.555 37.4318V32.2727H130.896V41H129.555V39.5227H129.464C129.26 39.9659 128.942 40.3428 128.51 40.6534C128.078 40.9602 127.533 41.1136 126.874 41.1136C126.328 41.1136 125.843 40.9943 125.419 40.7557C124.995 40.5133 124.661 40.1496 124.419 39.6648C124.177 39.1761 124.055 38.5606 124.055 37.8182V32.2727H125.396V37.7273C125.396 38.3636 125.574 38.8712 125.93 39.25C126.29 39.6288 126.749 39.8182 127.305 39.8182C127.639 39.8182 127.978 39.733 128.322 39.5625C128.671 39.392 128.963 39.1307 129.197 38.7784C129.436 38.4261 129.555 37.9773 129.555 37.4318ZM133.534 41V29.3636H134.875V33.6591H134.989C135.087 33.5076 135.223 33.3144 135.398 33.0795C135.576 32.8409 135.83 32.6288 136.159 32.4432C136.492 32.2538 136.943 32.1591 137.511 32.1591C138.246 32.1591 138.894 32.3428 139.455 32.7102C140.015 33.0777 140.453 33.5985 140.767 34.2727C141.081 34.947 141.239 35.7424 141.239 36.6591C141.239 37.5833 141.081 38.3845 140.767 39.0625C140.453 39.7367 140.017 40.2595 139.46 40.6307C138.903 40.9981 138.261 41.1818 137.534 41.1818C136.973 41.1818 136.525 41.089 136.188 40.9034C135.85 40.714 135.591 40.5 135.409 40.2614C135.227 40.0189 135.087 39.8182 134.989 39.6591H134.83V41H133.534ZM134.852 36.6364C134.852 37.2955 134.949 37.8769 135.142 38.3807C135.335 38.8807 135.617 39.2727 135.989 39.5568C136.36 39.8371 136.814 39.9773 137.352 39.9773C137.913 39.9773 138.381 39.8295 138.756 39.5341C139.134 39.2348 139.419 38.8333 139.608 38.3295C139.801 37.822 139.898 37.2576 139.898 36.6364C139.898 36.0227 139.803 35.4697 139.614 34.9773C139.428 34.4811 139.146 34.089 138.767 33.8011C138.392 33.5095 137.92 33.3636 137.352 33.3636C136.807 33.3636 136.348 33.5019 135.977 33.7784C135.606 34.0511 135.326 34.4337 135.136 34.9261C134.947 35.4148 134.852 35.9848 134.852 36.6364ZM148.449 41H146.972L151.244 29.3636H152.699L156.972 41H155.494L152.017 31.2045H151.926L148.449 41ZM148.994 36.4545H154.949V37.7045H148.994V36.4545ZM162.148 41.1818C161.33 41.1818 160.625 40.9886 160.034 40.6023C159.443 40.2159 158.989 39.6837 158.67 39.0057C158.352 38.3277 158.193 37.553 158.193 36.6818C158.193 35.7955 158.356 35.0133 158.682 34.3352C159.011 33.6534 159.47 33.1212 160.057 32.7386C160.648 32.3523 161.337 32.1591 162.125 32.1591C162.739 32.1591 163.292 32.2727 163.784 32.5C164.277 32.7273 164.68 33.0455 164.994 33.4545C165.309 33.8636 165.504 34.3409 165.58 34.8864H164.239C164.136 34.4886 163.909 34.1364 163.557 33.8295C163.208 33.5189 162.739 33.3636 162.148 33.3636C161.625 33.3636 161.167 33.5 160.773 33.7727C160.383 34.0417 160.078 34.4223 159.858 34.9148C159.642 35.4034 159.534 35.9773 159.534 36.6364C159.534 37.3106 159.64 37.8977 159.852 38.3977C160.068 38.8977 160.371 39.286 160.761 39.5625C161.155 39.839 161.617 39.9773 162.148 39.9773C162.496 39.9773 162.812 39.9167 163.097 39.7955C163.381 39.6742 163.621 39.5 163.818 39.2727C164.015 39.0455 164.155 38.7727 164.239 38.4545H165.58C165.504 38.9697 165.316 39.4337 165.017 39.8466C164.722 40.2557 164.33 40.5814 163.841 40.8239C163.356 41.0625 162.792 41.1818 162.148 41.1818ZM171.335 32.2727V33.4091H166.812V32.2727H171.335ZM168.131 30.1818H169.472V38.5C169.472 38.8788 169.527 39.1629 169.636 39.3523C169.75 39.5379 169.894 39.6629 170.068 39.7273C170.246 39.7879 170.434 39.8182 170.631 39.8182C170.778 39.8182 170.9 39.8106 170.994 39.7955C171.089 39.7765 171.165 39.7614 171.222 39.75L171.494 40.9545C171.403 40.9886 171.277 41.0227 171.114 41.0568C170.951 41.0947 170.744 41.1136 170.494 41.1136C170.116 41.1136 169.744 41.0322 169.381 40.8693C169.021 40.7064 168.722 40.4583 168.483 40.125C168.248 39.7917 168.131 39.3712 168.131 38.8636V30.1818ZM173.352 41V32.2727H174.693V41H173.352ZM174.034 30.8182C173.773 30.8182 173.547 30.7292 173.358 30.5511C173.172 30.3731 173.08 30.1591 173.08 29.9091C173.08 29.6591 173.172 29.4451 173.358 29.267C173.547 29.089 173.773 29 174.034 29C174.295 29 174.519 29.089 174.705 29.267C174.894 29.4451 174.989 29.6591 174.989 29.9091C174.989 30.1591 174.894 30.3731 174.705 30.5511C174.519 30.7292 174.295 30.8182 174.034 30.8182ZM180.695 41.1818C179.907 41.1818 179.215 40.9943 178.621 40.6193C178.03 40.2443 177.568 39.7197 177.234 39.0455C176.905 38.3712 176.74 37.5833 176.74 36.6818C176.74 35.7727 176.905 34.9792 177.234 34.3011C177.568 33.6231 178.03 33.0966 178.621 32.7216C179.215 32.3466 179.907 32.1591 180.695 32.1591C181.482 32.1591 182.172 32.3466 182.763 32.7216C183.357 33.0966 183.82 33.6231 184.149 34.3011C184.482 34.9792 184.649 35.7727 184.649 36.6818C184.649 37.5833 184.482 38.3712 184.149 39.0455C183.82 39.7197 183.357 40.2443 182.763 40.6193C182.172 40.9943 181.482 41.1818 180.695 41.1818ZM180.695 39.9773C181.293 39.9773 181.786 39.8239 182.172 39.517C182.558 39.2102 182.844 38.8068 183.03 38.3068C183.215 37.8068 183.308 37.2652 183.308 36.6818C183.308 36.0985 183.215 35.5549 183.03 35.0511C182.844 34.5473 182.558 34.1402 182.172 33.8295C181.786 33.5189 181.293 33.3636 180.695 33.3636C180.096 33.3636 179.604 33.5189 179.217 33.8295C178.831 34.1402 178.545 34.5473 178.359 35.0511C178.174 35.5549 178.081 36.0985 178.081 36.6818C178.081 37.2652 178.174 37.8068 178.359 38.3068C178.545 38.8068 178.831 39.2102 179.217 39.517C179.604 39.8239 180.096 39.9773 180.695 39.9773ZM188.037 35.75V41H186.696V32.2727H187.991V33.6364H188.105C188.31 33.1932 188.62 32.8371 189.037 32.5682C189.454 32.2955 189.991 32.1591 190.651 32.1591C191.241 32.1591 191.759 32.2803 192.202 32.5227C192.645 32.7614 192.99 33.125 193.236 33.6136C193.482 34.0985 193.605 34.7121 193.605 35.4545V41H192.264V35.5455C192.264 34.8598 192.086 34.3258 191.73 33.9432C191.374 33.5568 190.885 33.3636 190.264 33.3636C189.836 33.3636 189.454 33.4564 189.116 33.642C188.783 33.8277 188.52 34.0985 188.327 34.4545C188.134 34.8106 188.037 35.2424 188.037 35.75ZM202.237 34.2273L201.033 34.5682C200.957 34.3674 200.845 34.1723 200.697 33.983C200.554 33.7898 200.357 33.6307 200.107 33.5057C199.857 33.3807 199.536 33.3182 199.146 33.3182C198.612 33.3182 198.167 33.4413 197.811 33.6875C197.459 33.9299 197.283 34.2386 197.283 34.6136C197.283 34.947 197.404 35.2102 197.646 35.4034C197.889 35.5966 198.268 35.7576 198.783 35.8864L200.078 36.2045C200.858 36.3939 201.44 36.6837 201.822 37.0739C202.205 37.4602 202.396 37.9583 202.396 38.5682C202.396 39.0682 202.252 39.5152 201.964 39.9091C201.68 40.303 201.283 40.6136 200.771 40.8409C200.26 41.0682 199.665 41.1818 198.987 41.1818C198.097 41.1818 197.36 40.9886 196.777 40.6023C196.194 40.2159 195.824 39.6515 195.669 38.9091L196.942 38.5909C197.063 39.0606 197.292 39.4129 197.629 39.6477C197.97 39.8826 198.415 40 198.964 40C199.589 40 200.086 39.8674 200.453 39.6023C200.824 39.3333 201.01 39.0114 201.01 38.6364C201.01 38.3333 200.904 38.0795 200.692 37.875C200.48 37.6667 200.154 37.5114 199.714 37.4091L198.26 37.0682C197.461 36.8788 196.874 36.5852 196.499 36.1875C196.127 35.786 195.942 35.2841 195.942 34.6818C195.942 34.1894 196.08 33.7538 196.357 33.375C196.637 32.9962 197.018 32.6989 197.499 32.483C197.983 32.267 198.533 32.1591 199.146 32.1591C200.01 32.1591 200.688 32.3485 201.18 32.7273C201.677 33.1061 202.029 33.6061 202.237 34.2273Z" fill="#334155"></path></g><defs><filter id="filter0_d_1339_2278" x="6" y="7" width="36" height="36" filterUnits="userSpaceOnUse" color-interpolation-filters="sRGB"><feFlood flood-opacity="0" result="BackgroundImageFix"></feFlood><feColorMatrix in="SourceAlpha" type="matrix" values="0 0 0 0 0 0 0 0 0 0 0 0 0 0 0 0 0 0 127 0" result="hardAlpha"></feColorMatrix><feOffset dy="1"></feOffset><feGaussianBlur stdDeviation="1"></feGaussianBlur><feComposite in2="hardAlpha" operator="out"></feComposite><feColorMatrix type="matrix" values="0 0 0 0 0 0 0 0 0 0 0 0 0 0 0 0 0 0 0.25 0"></feColorMatrix><feBlend mode="normal" in2="BackgroundImageFix" result="effect1_dropShadow_1339_2278"></feBlend><feBlend mode="normal" in="SourceGraphic" in2="effect1_dropShadow_1339_2278" result="shape"></feBlend></filter><filter id="filter1_f_1339_2278" x="15" y="12" width="18.8535" height="24.0001" filterUnits="userSpaceOnUse" color-interpolation-filters="sRGB"><feFlood flood-opacity="0" result="BackgroundImageFix"></feFlood><feBlend mode="normal" in="SourceGraphic" in2="BackgroundImageFix" result="shape"></feBlend><feGaussianBlur stdDeviation="2" result="effect1_foregroundBlur_1339_2278"></feGaussianBlur></filter><clipPath id="clip0_1339_2278"><rect width="204" height="48" fill="white"></rect></clipPath></defs></svg>

<?xml version="1.0" encoding="UTF-8"?>
<svg class="h-[38px] shrink-0" fill="none" version="1.1" viewBox="0 0 48 48" xmlns="http://www.w3.org/2000/svg"><path d="m40 0h-32c-4.42 0-8 3.58-8 8v32c0 4.42 3.58 8 8 8h32c4.42 0 8-3.58 8-8v-32c0-4.42-3.58-8-8-8z" clip-path="url(#c)" fill="#2563eb"/><g clip-path="url(#d)" filter="url(#b)"><path d="m34 8h-20c-3.31 0-6 2.69-6 6v20c0 3.31 2.69 6 6 6h20c3.31 0 6-2.69 6-6v-20c0-3.31-2.69-6-6-6z" fill="#fff"/></g><g clip-path="url(#e)" filter="url(#a)"><path d="m25.6 24.1-0.132 0.486 3.28 0.866-7.28 5.28 2.01-7.38-3.28-0.866 7.28-5.28z" stroke="#4f46e5" stroke-opacity=".6"/></g><path d="m25.6 24.1-0.132 0.486 3.28 0.866-7.28 5.28 2.01-7.38-3.28-0.866 7.28-5.28z" clip-path="url(#f)" fill="#2563eb" stroke="#1d4ed8"/><defs><filter id="b" x="6" y="7" width="36" height="36" color-interpolation-filters="sRGB" filterUnits="userSpaceOnUse"><feFlood flood-opacity="0" result="BackgroundImageFix"/><feColorMatrix in="SourceAlpha" result="hardAlpha" values="0 0 0 0 0 0 0 0 0 0 0 0 0 0 0 0 0 0 127 0"/><feOffset dy="1"/><feGaussianBlur stdDeviation="1"/><feComposite in2="hardAlpha" operator="out"/><feColorMatrix values="0 0 0 0 0 0 0 0 0 0 0 0 0 0 0 0 0 0 0.25 0"/><feBlend in2="BackgroundImageFix" result="effect1_dropShadow_1339_2278"/><feBlend in="SourceGraphic" in2="effect1_dropShadow_1339_2278" result="shape"/></filter><filter id="a" x="15" y="12" width="18.9" height="24" color-interpolation-filters="sRGB" filterUnits="userSpaceOnUse"><feFlood flood-opacity="0" result="BackgroundImageFix"/><feBlend in="SourceGraphic" in2="BackgroundImageFix" result="shape"/><feGaussianBlur result="effect1_foregroundBlur_1339_2278" stdDeviation="2"/></filter><clipPath id="f"><rect width="204" height="48" fill="#fff"/></clipPath><clipPath id="e"><rect width="204" height="48" fill="#fff"/></clipPath><clipPath id="d"><rect width="204" height="48" fill="#fff"/></clipPath><clipPath id="c"><rect width="204" height="48" fill="#fff"/></clipPath></defs></svg>
